icons/measure-building-height-shadow-16-f.svg

<svg xmlns="http://www.w3.org/2000/svg" viewBox="0 0 16 16"><path d="M2 15H1V0h7v15H7M3 4h1V3H3zm0 3h1V6H3zm0 3h1V9H3zm0 3h1v-1H3zm2-9h1V3H5zm0 3h1V6H5zm0 3h1V9H5zm0 3h1v-1H5zm7.5-2h.5a.99.99 0 0 1 .204-.592L8 0v2zM11 11l-2 1.5 2 1.5v-1h3v1l2-1.5-2-1.5v1h-3zm-4 4H0v1h16v-1H7z"/></svg>

<svg id="icons" xmlns="http://www.w3.org/2000/svg" viewBox="0 0 16 16"><title>measure-building-height-shadow-16-f</title><path d="M2,15H1V0H8V15H7M3,4H4V3H3ZM3,7H4V6H3Zm0,3H4V9H3Zm0,3H4V12H3ZM5,4H6V3H5ZM5,7H6V6H5Zm0,3H6V9H5Zm0,3H6V12H5Zm7.5-2H13a.99031.99031,0,0,1,.204-.59192L8,0V2ZM11,11,9,12.5,11,14V13h3v1l2-1.5L14,11v1H11ZM7,15H0v1H16V15H7Z"/></svg>
